dist/common.blocks/about/coins/XRP.svg

<?xml version="1.0" encoding="UTF-8" standalone="no"?>
<svg width="56px" height="56px" viewBox="0 0 56 56" version="1.1" xmlns="http://www.w3.org/2000/svg" xmlns:xlink="http://www.w3.org/1999/xlink">
    <!-- Generator: Sketch 46.2 (44496) - http://www.bohemiancoding.com/sketch -->
    <title>XRP</title>
    <desc>Created with Sketch.</desc>
    <g id="Page-1" stroke="none" stroke-width="1" fill="none" fill-rule="evenodd">
        <g id="ripple">
            <g id="XRP">
                <rect id="Rectangle-1-Copy-2" fill="#006097" x="0" y="0" width="56" height="56" rx="28"></rect>
                <path d="M30.7335891,11.0085285 C28.320103,12.3518234 26.833369,14.8338995 26.833369,17.5203203 C26.833369,18.976952 27.3708886,20.3175404 28.0568711,21.5610313 C28.6337,22.6067748 28.9255365,24.5475408 26.9472607,25.6485995 C25.4754431,26.4676694 23.638786,25.9488575 22.7213349,24.5336698 C21.9465555,23.3383893 21.0110292,22.2183848 19.7013625,21.4893077 C15.9706638,19.413045 11.2001989,20.6452022 9.04625954,24.2413623 C8.33676168,25.4259857 7.9996493,26.7195478 8.00000027,27.9956864 C8.00368552,30.5987116 9.40214914,33.1212168 11.9012733,34.5120456 C14.3145838,35.8551713 17.2878765,35.8551713 19.7013625,34.5120456 C21.0106782,33.7833068 21.9462046,32.6641481 22.720633,31.4693751 C23.3566014,30.4884196 24.9447675,29.237824 26.9470852,30.3530921 C28.4164459,31.1714854 28.8707843,32.964406 28.0561691,34.4413369 C27.3705377,35.6846587 26.8335445,37.0249087 26.8335445,38.4813713 C26.8335445,42.6337276 30.325755,46 34.6336337,46 C38.9413368,46 42.4333719,42.6337276 42.4333719,38.4813713 C42.4333719,35.7952889 40.9468133,33.3130436 38.5335028,31.970087 C37.2131313,31.2350893 35.7260463,31.0221176 34.2533512,30.9725539 C33.017565,30.9309407 31.1738884,30.1675242 31.1738884,28.0007612 C31.1738884,26.3863037 32.5316388,25.0869902 34.2538777,25.0289686 C35.7267482,24.9792357 37.2134823,24.7660948 38.5335028,24.0314355 C41.0328024,22.6406067 42.4314415,20.1177631 42.4347758,17.5225193 C42.4365307,16.2438433 42.0994183,14.9475747 41.3885165,13.760583 C39.9488132,11.3568277 37.3393072,10.0093038 34.6532883,10 C33.2843067,10.0045673 31.9534059,10.3296917 30.7335891,11.0085285 Z" id="Fill-1" fill="#FFFFFF"></path>
            </g>
        </g>
    </g>
</svg>

<svg width="56" height="56" xmlns="http://www.w3.org/2000/svg"><g fill="none" fill-rule="evenodd"><rect fill="#006097" width="56" height="56" rx="28"/><path d="M30.734 11.009c-2.414 1.343-3.9 3.825-3.9 6.511 0 1.457.537 2.798 1.223 4.041.577 1.046.869 2.987-1.11 4.088-1.472.819-3.308.3-4.226-1.115-.774-1.196-1.71-2.316-3.02-3.045-3.73-2.076-8.5-.844-10.655 2.752A7.278 7.278 0 0 0 8 27.996c.004 2.603 1.402 5.125 3.901 6.516a8.053 8.053 0 0 0 7.8 0c1.31-.729 2.245-1.848 3.02-3.043.636-.98 2.224-2.231 4.226-1.116 1.47.818 1.924 2.611 1.11 4.088-.686 1.244-1.223 2.584-1.223 4.04 0 4.153 3.492 7.519 7.8 7.519 4.307 0 7.8-3.366 7.8-7.519 0-2.686-1.487-5.168-3.9-6.51-1.32-.736-2.808-.949-4.28-.998-1.236-.042-3.08-.805-3.08-2.972 0-1.615 1.358-2.914 3.08-2.972 1.473-.05 2.96-.263 4.28-.998 2.499-1.39 3.897-3.913 3.9-6.508a7.277 7.277 0 0 0-1.045-3.762c-1.44-2.404-4.05-3.752-6.736-3.761a8.04 8.04 0 0 0-3.92 1.009z" fill="#FFF"/></g></svg>
